src/objects/money/1F4B8.svg

<?xml version="1.0" encoding="UTF-8"?>
<svg id="emoji" xmlns="http://www.w3.org/2000/svg" viewBox="0 0 72 72">
  <g id="grid">
    <path d="m68,4v64H4V4h64M72,0H0v72h72V0Z" fill="#b3b3b3"/>
    <path d="m12.923,10.9583h46.1539c1.0621,0,1.9231.861,1.9231,1.9231h0v46.1538c0,1.0621-.861,1.9231-1.9231,1.9231H12.9231c-1.0621,0-1.9231-.861-1.9231-1.9231h0V12.8813c0-1.062.861-1.923,1.923-1.923h0Z" fill="none" stroke="#00a5ff" stroke-miterlimit="10" stroke-width=".1"/>
    <rect x="16" y="4" width="40" height="64" rx="2.2537" ry="2.2537" fill="none" stroke="#00a5ff" stroke-miterlimit="10" stroke-width=".1"/>
    <rect x="4" y="16" width="64" height="40" rx="2.2537" ry="2.2537" fill="none" stroke="#00a5ff" stroke-miterlimit="10" stroke-width=".1"/>
    <circle cx="36" cy="36" r="29" fill="none" stroke="#00a5ff" stroke-miterlimit="10" stroke-width=".1"/>
  </g>
  <g id="color">
    <rect x="29.1445" y="23.3544" width="17.9998" height="28.5812" transform="translate(-15.4468 37.9981) rotate(-45)" fill="#fff"/>
    <path d="m13.9792,56.7778c.3645.3645.8533.5189,1.325.4674,0,0,8.9017.0515,13.9615-4.8025.0643-.0557.1243-.1157.1843-.1758,1.8352-1.8352,1.8309-4.8068,0-6.6377-1.831-1.831-4.8025-1.8352-6.6377,0l-8.8331,8.8331c-.6389.639-.6389,1.6766,0,2.3155Z" fill="#fff"/>
    <path d="m22.1465,53.0191c.12.81-.36,1.98-1.31,2.98-.29.3-.59.56-.9.76" fill="#fff"/>
    <path d="m17.9665,55.6591c-.08.58-.36,1.11-.8,1.49" fill="#fff"/>
    <path d="m33.4807,23.3837c.9091-.9091.82-.9109,1.7292-.0018s1.7731,1.5059.864,2.415-2.3831.9091-3.2923,0-.21-1.5041.6991-2.4132Z" fill="#5c9e31"/>
    <path d="m50.4299,39.7151c.9091-.9091,1.3987.0753,2.3078.9844s.54.6901-.3692,1.5993-1.0296,1.6177-1.9387.7086-.9091-2.3831,0-3.2923Z" fill="#5c9e31"/>
    <path d="m23.4233,33.364c.9091-.9091,1.6321-1.6594,2.5412-.7503s.9091,2.3831,0,3.2923-1.6254-.2646-2.5346-1.1737-.9158-.4591-.0066-1.3683Z" fill="#5c9e31"/>
    <path d="m39.9328,49.8743c.9091-.9091,2.3831-.9091,3.2923,0s-.0749,1.3982-.984,2.3074-.327,1.1598-1.2362.2507-1.9812-1.6489-1.0721-2.558Z" fill="#5c9e31"/>
    <polygon points="53.4859 41.6579 52.8051 42.0888 33.4807 22.7644 34.1615 22.3335 53.4859 41.6579" fill="#5c9e31"/>
    <polygon points="42.241 52.1817 41.579 52.8438 22.7353 34.0376 23.4233 33.364 42.241 52.1817" fill="#5c9e31"/>
    <polygon points="34.6717 22.3512 35.3663 23.0458 23.43 34.7322 22.7353 34.0376 34.6717 22.3512" fill="#5c9e31"/>
    <polygon points="52.7378 40.6995 53.7117 40.7012 41.5871 52.8438 41.0996 52.3555 52.7378 40.6995" fill="#5c9e31"/>
    <ellipse cx="38.1008" cy="37.4676" rx="5.7417" ry="9.2769" transform="translate(-15.3341 37.9154) rotate(-45)" fill="#5c9e31"/>
    <path d="m47.425,35.1923l-11.7327,11.7327c-.0422.0422-.0886.0725-.1392.0987-.2062.1007-.4716.0578-.6501-.1206l-6.2227-6.2227c-.1785-.1785-.2214-.4439-.1206-.6501.0262-.0505.0565-.097.0987-.1392l11.7326-11.7328c.0422-.0422.0887-.0725.1392-.0987.2062-.1007.4716-.0578.6501.1206l6.2227,6.2227c.1785.1785.2214.4439.1206.6501-.0262.0506-.0564.0971-.0986.1393Z" fill="#fff"/>
    <path d="m57.1856,13.5714c.3645.3645.5189.8533.4674,1.325,0,0,.0515,8.9017-4.8025,13.9615-.0557.0643-.1158.1243-.1758.1844-1.8352,1.8352-4.8068,1.8309-6.6377,0-1.831-1.831-1.8352-4.8025,0-6.6377l8.8331-8.8331c.639-.639,1.6766-.639,2.3155,0Z" fill="#fff"/>
    <path d="m53.4268,21.7387c.81.12,1.98-.36,2.98-1.31.3-.29.56-.59.76-.9" fill="#fff"/>
    <path d="m56.0668,17.5587c.58-.08,1.11-.36,1.49-.8" fill="#fff"/>
  </g>
  <g id="line">
    <path d="m13.9792,56.7778c.3645.3645.8533.5189,1.325.4674,0,0,8.9017.0515,13.9615-4.8025.0643-.0557.1243-.1157.1843-.1758,1.8352-1.8352,1.8309-4.8068,0-6.6377-1.831-1.831-4.8025-1.8352-6.6377,0l-8.8331,8.8331c-.6389.639-.6389,1.6766,0,2.3155Z" fill="none" stroke="#000" stroke-linecap="round" stroke-miterlimit="10" stroke-width="2"/>
    <line x1="17.2365" y1="57.1391" x2="17.2265" y2="57.1291" fill="none" stroke="#000" stroke-linecap="round" stroke-miterlimit="10" stroke-width="2"/>
    <path d="m22.1465,53.0191c.12.81-.36,1.98-1.31,2.98-.29.3-.59.56-.9.76" fill="none" stroke="#000" stroke-linecap="round" stroke-miterlimit="10" stroke-width="2"/>
    <path d="m17.9665,55.6591c-.08.58-.36,1.11-.8,1.49" fill="none" stroke="#000" stroke-linecap="round" stroke-miterlimit="10" stroke-width="2"/>
    <path d="m41.0551,53.3579l-18.6127-18.6128c-.3905-.3905-.3905-1.0237,0-1.4142l11.2424-11.2424c.3905-.3905,1.0237-.3905,1.4142,0l18.6127,18.6127c.3905.3905.3905,1.0237,0,1.4142l-11.2424,11.2425c-.3905.3905-1.0237.3905-1.4142,0Z" fill="none" stroke="#000" stroke-linecap="round" stroke-linejoin="round" stroke-width="2"/>
    <path d="m47.425,35.1923l-11.7327,11.7327c-.0422.0422-.0886.0725-.1392.0987-.2062.1007-.4716.0578-.6501-.1206l-6.2227-6.2227c-.1785-.1785-.2214-.4439-.1206-.6501.0262-.0505.0565-.097.0987-.1392l11.7326-11.7328c.0422-.0422.0887-.0725.1392-.0987.2062-.1007.4716-.0578.6501.1206l6.2227,6.2227c.1785.1785.2214.4439.1206.6501-.0262.0506-.0564.0971-.0986.1393Z" fill="none" stroke="#000" stroke-linecap="round" stroke-linejoin="round" stroke-width="2"/>
    <path d="m57.1856,13.5714c.3645.3645.5189.8533.4674,1.325,0,0,.0515,8.9017-4.8025,13.9615-.0557.0643-.1158.1243-.1758.1844-1.8352,1.8352-4.8068,1.8309-6.6377,0-1.831-1.831-1.8352-4.8025,0-6.6377l8.8331-8.8331c.639-.639,1.6766-.639,2.3155,0Z" fill="none" stroke="#000" stroke-linecap="round" stroke-miterlimit="10" stroke-width="2"/>
    <line x1="57.5468" y1="16.8287" x2="57.5368" y2="16.8187" fill="none" stroke="#000" stroke-linecap="round" stroke-miterlimit="10" stroke-width="2"/>
    <path d="m53.4268,21.7387c.81.12,1.98-.36,2.98-1.31.3-.29.56-.59.76-.9" fill="none" stroke="#000" stroke-linecap="round" stroke-miterlimit="10" stroke-width="2"/>
    <path d="m56.0668,17.5587c.58-.08,1.11-.36,1.49-.8" fill="none" stroke="#000" stroke-linecap="round" stroke-miterlimit="10" stroke-width="2"/>
  </g>
</svg>

<svg id="emoji" viewBox="0 0 72 72" xmlns="http://www.w3.org/2000/svg">
  <g id="grid">
    <path fill="#b3b3b3" d="M68,4V68H4V4H68m4-4H0V72H72V0Z"/>
    <path fill="none" stroke="#00a5ff" stroke-miterlimit="10" stroke-width="0.1" d="M12.923,10.9583H59.0769A1.9231,1.9231,0,0,1,61,12.8814V59.0352a1.9231,1.9231,0,0,1-1.9231,1.9231H12.9231A1.9231,1.9231,0,0,1,11,59.0352V12.8813A1.923,1.923,0,0,1,12.923,10.9583Z"/>
    <rect x="16" y="4" rx="2.2537" width="40" height="64" fill="none" stroke="#00a5ff" stroke-miterlimit="10" stroke-width="0.1"/>
    <rect x="16" y="4" rx="2.2537" width="40" height="64" transform="translate(72) rotate(90)" fill="none" stroke="#00a5ff" stroke-miterlimit="10" stroke-width="0.1"/>
    <circle cx="36" cy="36" r="29" fill="none" stroke="#00a5ff" stroke-miterlimit="10" stroke-width="0.1"/>
  </g>
  <g id="color">
    <rect x="29.1449" y="23.3542" width="18" height="28.5815" transform="matrix(0.7071 -0.7071 0.7071 0.7071 -15.4466 37.9985)" fill="#FFFFFF" stroke="none"/>
    <path fill="#FFFFFF" stroke="none" stroke-linecap="round" stroke-miterlimit="10" stroke-width="2" d="M13.9792,56.7778 c0.3645,0.3645,0.8533,0.5189,1.325,0.4674c0,0,8.9017,0.0515,13.9615-4.8025C29.33,52.387,29.39,52.327,29.45,52.2669 c1.8352-1.8352,1.8309-4.8068,0-6.6377c-1.831-1.831-4.8025-1.8352-6.6377,0l-8.8331,8.8331 C13.3403,55.1013,13.3403,56.1389,13.9792,56.7778z"/>
    <path fill="#FFFFFF" stroke="none" stroke-linecap="round" stroke-miterlimit="10" stroke-width="2" d="M22.1465,53.0191 c0.12,0.81-0.36,1.98-1.31,2.98c-0.29,0.3-0.59,0.56-0.9,0.76"/>
    <path fill="#FFFFFF" stroke="none" stroke-linecap="round" stroke-miterlimit="10" stroke-width="2" d="M17.9665,55.6591 c-0.08,0.58-0.36,1.11-0.8,1.49"/>
    <ellipse cx="34.4281" cy="24.1507" rx="2.328" ry="2.328" transform="matrix(0.7071 -0.7071 0.7071 0.7071 -6.9934 31.4179)" fill="#5C9E31" stroke="none"/>
    <ellipse cx="52.0767" cy="41.3611" rx="2.328" ry="2.328" transform="matrix(0.7071 -0.7071 0.7071 0.7071 -13.9938 48.9382)" fill="#5C9E31" stroke="none"/>
    <ellipse cx="24.3188" cy="34.2599" rx="2.328" ry="2.328" transform="matrix(0.7071 -0.7071 0.7071 0.7071 -17.1026 27.2305)" fill="#5C9E31" stroke="none"/>
    <ellipse cx="41.5796" cy="51.5206" rx="2.328" ry="2.328" transform="matrix(0.7071 -0.7071 0.7071 0.7071 -24.2522 44.4912)" fill="#5C9E31" stroke="none"/>
    <rect x="42.8977" y="18.1717" width="1.67" height="27.3291" transform="matrix(-0.7071 0.7071 -0.7071 -0.7071 97.1681 23.4242)" fill="#5C9E31" stroke="none"/>
    <rect x="31.153" y="29.4453" width="1.67" height="27.3291" transform="matrix(-0.7071 0.7071 -0.7071 -0.7071 85.0901 50.9742)" fill="#5C9E31" stroke="none"/>
    <rect x="27.9561" y="19.0196" width="1.6895" height="18.295" transform="matrix(0.7071 0.7071 -0.7071 0.7071 28.3527 -12.1153)" fill="#5C9E31" stroke="none"/>
    <rect x="46.7884" y="37.8519" width="1.6895" height="18.295" transform="matrix(0.7071 0.7071 -0.7071 0.7071 47.185 -19.9159)" fill="#5C9E31" stroke="none"/>
    <ellipse cx="38.1014" cy="37.4676" rx="5.7418" ry="9.277" transform="matrix(0.7071 -0.7071 0.7071 0.7071 -15.334 37.9158)" fill="#5C9E31" stroke="none"/>
    <path fill="#FFFFFF" stroke="none" stroke-linecap="round" stroke-linejoin="round" stroke-miterlimit="10" stroke-width="2" d="M47.425,35.1923L35.6923,46.925c-0.0422,0.0422-0.0886,0.0725-0.1392,0.0987c-0.2062,0.1007-0.4716,0.0578-0.6501-0.1206 l-6.2227-6.2227c-0.1785-0.1785-0.2214-0.4439-0.1206-0.6501c0.0262-0.0505,0.0565-0.097,0.0987-0.1392L40.391,28.1583 c0.0422-0.0422,0.0887-0.0725,0.1392-0.0987c0.2062-0.1007,0.4716-0.0578,0.6501,0.1206l6.2227,6.2227 c0.1785,0.1785,0.2214,0.4439,0.1206,0.6501C47.4974,35.1036,47.4672,35.1501,47.425,35.1923z"/>
    <path fill="#FFFFFF" stroke="none" stroke-linecap="round" stroke-miterlimit="10" stroke-width="2" d="M57.1856,13.5714 c0.3645,0.3645,0.5189,0.8533,0.4674,1.325c0,0,0.0515,8.9017-4.8025,13.9615c-0.0557,0.0643-0.1158,0.1243-0.1758,0.1844 c-1.8352,1.8352-4.8068,1.8309-6.6377,0c-1.831-1.831-1.8352-4.8025,0-6.6377l8.8331-8.8331 C55.5091,12.9325,56.5467,12.9325,57.1856,13.5714z"/>
    <path fill="#FFFFFF" stroke="none" stroke-linecap="round" stroke-miterlimit="10" stroke-width="2" d="M53.4268,21.7387 c0.81,0.12,1.98-0.36,2.98-1.31c0.3-0.29,0.56-0.59,0.76-0.9"/>
    <path fill="#FFFFFF" stroke="none" stroke-linecap="round" stroke-miterlimit="10" stroke-width="2" d="M56.0668,17.5587 c0.58-0.08,1.11-0.36,1.49-0.8"/>
  </g>
  <g id="hair"/>
  <g id="skin"/>
  <g id="skin-shadow"/>
  <g id="line">
    <path fill="none" stroke="#000000" stroke-linecap="round" stroke-miterlimit="10" stroke-width="2" d="M13.9792,56.7778 c0.3645,0.3645,0.8533,0.5189,1.325,0.4674c0,0,8.9017,0.0515,13.9615-4.8025C29.33,52.387,29.39,52.327,29.45,52.2669 c1.8352-1.8352,1.8309-4.8068,0-6.6377c-1.831-1.831-4.8025-1.8352-6.6377,0l-8.8331,8.8331 C13.3403,55.1013,13.3403,56.1389,13.9792,56.7778z"/>
    <line x1="17.2365" x2="17.2265" y1="57.1391" y2="57.1291" fill="none" stroke="#000000" stroke-linecap="round" stroke-miterlimit="10" stroke-width="2"/>
    <path fill="none" stroke="#000000" stroke-linecap="round" stroke-miterlimit="10" stroke-width="2" d="M22.1465,53.0191 c0.12,0.81-0.36,1.98-1.31,2.98c-0.29,0.3-0.59,0.56-0.9,0.76"/>
    <path fill="none" stroke="#000000" stroke-linecap="round" stroke-miterlimit="10" stroke-width="2" d="M17.9665,55.6591 c-0.08,0.58-0.36,1.11-0.8,1.49"/>
    <path fill="none" stroke="#000000" stroke-linecap="round" stroke-linejoin="round" stroke-miterlimit="10" stroke-width="2" d="M41.0551,53.3579L22.4424,34.7451c-0.3905-0.3905-0.3905-1.0237,0-1.4142l11.2424-11.2424c0.3905-0.3905,1.0237-0.3905,1.4142,0 l18.6127,18.6127c0.3905,0.3905,0.3905,1.0237,0,1.4142L42.4693,53.3579C42.0788,53.7484,41.4456,53.7484,41.0551,53.3579z"/>
    <path fill="none" stroke="#000000" stroke-linecap="round" stroke-linejoin="round" stroke-miterlimit="10" stroke-width="2" d="M47.425,35.1923L35.6923,46.925c-0.0422,0.0422-0.0886,0.0725-0.1392,0.0987c-0.2062,0.1007-0.4716,0.0578-0.6501-0.1206 l-6.2227-6.2227c-0.1785-0.1785-0.2214-0.4439-0.1206-0.6501c0.0262-0.0505,0.0565-0.097,0.0987-0.1392L40.391,28.1583 c0.0422-0.0422,0.0887-0.0725,0.1392-0.0987c0.2062-0.1007,0.4716-0.0578,0.6501,0.1206l6.2227,6.2227 c0.1785,0.1785,0.2214,0.4439,0.1206,0.6501C47.4974,35.1036,47.4672,35.1501,47.425,35.1923z"/>
    <path fill="none" stroke="#000000" stroke-linecap="round" stroke-miterlimit="10" stroke-width="2" d="M57.1856,13.5714 c0.3645,0.3645,0.5189,0.8533,0.4674,1.325c0,0,0.0515,8.9017-4.8025,13.9615c-0.0557,0.0643-0.1158,0.1243-0.1758,0.1844 c-1.8352,1.8352-4.8068,1.8309-6.6377,0c-1.831-1.831-1.8352-4.8025,0-6.6377l8.8331-8.8331 C55.5091,12.9325,56.5467,12.9325,57.1856,13.5714z"/>
    <line x1="57.5468" x2="57.5368" y1="16.8287" y2="16.8187" fill="none" stroke="#000000" stroke-linecap="round" stroke-miterlimit="10" stroke-width="2"/>
    <path fill="none" stroke="#000000" stroke-linecap="round" stroke-miterlimit="10" stroke-width="2" d="M53.4268,21.7387 c0.81,0.12,1.98-0.36,2.98-1.31c0.3-0.29,0.56-0.59,0.76-0.9"/>
    <path fill="none" stroke="#000000" stroke-linecap="round" stroke-miterlimit="10" stroke-width="2" d="M56.0668,17.5587 c0.58-0.08,1.11-0.36,1.49-0.8"/>
  </g>
</svg>
